packages/ffe-icons/icons/open/400/sm/tab_duplicate.svg

<svg xmlns="http://www.w3.org/2000/svg" height="20" viewBox="0 -960 960 960" width="20"><path d="M312-240q-29.7 0-50.85-21.15Q240-282.3 240-312v-480q0-29.7 21.15-50.85Q282.3-864 312-864h480q29.7 0 50.85 21.15Q864-821.7 864-792v480q0 29.7-21.15 50.85Q821.7-240 792-240H312Zm0-72h480v-360H564q-15.3 0-25.65-10.35Q528-692.7 528-708v-84H312v480Zm0-480v480-480Zm-179.79 96q-15.21 0-25.71-10.29T96-731.79q0-15.21 10.29-25.71t25.5-10.5q15.21 0 25.71 10.29t10.5 25.5q0 15.21-10.29 25.71t-25.5 10.5Zm150 600Q267-96 256.5-106.29t-10.5-25.5q0-15.21 10.29-25.71t25.5-10.5q15.21 0 25.71 10.29t10.5 25.5q0 15.21-10.29 25.71T282.21-96Zm150 0Q417-96 406.5-106.29t-10.5-25.5q0-15.21 10.29-25.71t25.5-10.5q15.21 0 25.71 10.29t10.5 25.5q0 15.21-10.29 25.71T432.21-96Zm150 0Q567-96 556.5-106.29t-10.5-25.5q0-15.21 10.29-25.71t25.5-10.5q15.21 0 25.71 10.29t10.5 25.5q0 15.21-10.29 25.71T582.21-96Zm-450-450q-15.21 0-25.71-10.29T96-581.79q0-15.21 10.29-25.71t25.5-10.5q15.21 0 25.71 10.29t10.5 25.5q0 15.21-10.29 25.71t-25.5 10.5Zm0 150q-15.21 0-25.71-10.29T96-431.79q0-15.21 10.29-25.71t25.5-10.5q15.21 0 25.71 10.29t10.5 25.5q0 15.21-10.29 25.71t-25.5 10.5Zm0 150q-15.21 0-25.71-10.29T96-281.79q0-15.21 10.29-25.71t25.5-10.5q15.21 0 25.71 10.29t10.5 25.5q0 15.21-10.29 25.71t-25.5 10.5Zm0 150Q117-96 106.5-106.29T96-131.79q0-15.21 10.29-25.71t25.5-10.5q15.21 0 25.71 10.29t10.5 25.5q0 15.21-10.29 25.71T132.21-96Zm600 0Q717-96 706.5-106.29t-10.5-25.5q0-15.21 10.29-25.71t25.5-10.5q15.21 0 25.71 10.29t10.5 25.5q0 15.21-10.29 25.71T732.21-96Z"/></svg>

<svg xmlns="http://www.w3.org/2000/svg" height="20" viewBox="0 -960 960 960" width="20"><path d="M312-240q-29.7 0-50.85-21.15Q240-282.3 240-312v-480q0-29.7 21.15-50.85Q282.3-864 312-864h480q29.7 0 50.85 21.15Q864-821.7 864-792v480q0 29.7-21.15 50.85Q821.7-240 792-240H312Zm0-72h480v-360H564q-15.3 0-25.65-10.35Q528-692.7 528-708v-84H312v480Zm0-480v480-480Zm-179.789 96Q117-696 106.5-706.289q-10.5-10.29-10.5-25.5Q96-747 106.289-757.5q10.29-10.5 25.5-10.5Q147-768 157.5-757.711q10.5 10.29 10.5 25.5Q168-717 157.711-706.5q-10.29 10.5-25.5 10.5Zm150 600Q267-96 256.5-106.289q-10.5-10.29-10.5-25.5Q246-147 256.289-157.5q10.29-10.5 25.5-10.5Q297-168 307.5-157.711q10.5 10.29 10.5 25.5Q318-117 307.711-106.5q-10.29 10.5-25.5 10.5Zm150 0Q417-96 406.5-106.289q-10.5-10.29-10.5-25.5Q396-147 406.289-157.5q10.29-10.5 25.5-10.5Q447-168 457.5-157.711q10.5 10.29 10.5 25.5Q468-117 457.711-106.5q-10.29 10.5-25.5 10.5Zm150 0Q567-96 556.5-106.289q-10.5-10.29-10.5-25.5Q546-147 556.289-157.5q10.29-10.5 25.5-10.5Q597-168 607.5-157.711q10.5 10.29 10.5 25.5Q618-117 607.711-106.5q-10.29 10.5-25.5 10.5Zm-450-450Q117-546 106.5-556.289q-10.5-10.29-10.5-25.5Q96-597 106.289-607.5q10.29-10.5 25.5-10.5Q147-618 157.5-607.711q10.5 10.29 10.5 25.5Q168-567 157.711-556.5q-10.29 10.5-25.5 10.5Zm0 150Q117-396 106.5-406.289q-10.5-10.29-10.5-25.5Q96-447 106.289-457.5q10.29-10.5 25.5-10.5Q147-468 157.5-457.711q10.5 10.29 10.5 25.5Q168-417 157.711-406.5q-10.29 10.5-25.5 10.5Zm0 150Q117-246 106.5-256.289q-10.5-10.29-10.5-25.5Q96-297 106.289-307.5q10.29-10.5 25.5-10.5Q147-318 157.5-307.711q10.5 10.29 10.5 25.5Q168-267 157.711-256.5q-10.29 10.5-25.5 10.5Zm0 150Q117-96 106.5-106.289q-10.5-10.29-10.5-25.5Q96-147 106.289-157.5q10.29-10.5 25.5-10.5Q147-168 157.5-157.711q10.5 10.29 10.5 25.5Q168-117 157.711-106.5q-10.29 10.5-25.5 10.5Zm600 0Q717-96 706.5-106.289q-10.5-10.29-10.5-25.5Q696-147 706.289-157.5q10.29-10.5 25.5-10.5Q747-168 757.5-157.711q10.5 10.29 10.5 25.5Q768-117 757.711-106.5q-10.29 10.5-25.5 10.5Z"/></svg>
